X:8
T:House Warming
R:reel
C:Paul S. Cranford
O:Cape Breton Island
S:http://www.cranfordpub.com
D:currently unrecorded
B:currently unpublished in book form
Z:psc, (re-formatted,updated 9/17/04)
N:
H:                                                        copyrights Cranford Publications, SOCAN
L:1/8
Q:333
M:C|
K:A
cd|ecfd ecBc|AGFA E2 A=G|FDDF EACE|FAdc B2 cd|
ecfd ecBc|AGFA E2 A=G|FADF EAce|dBAG A2:|
|:AF|EAcA eAcA|abae f2 ag|fdaf ecAc|dcBA B2 AF|
EAcA eAcA|abae f2 ag|fafd eAce|dBAG A2:|
